X:1
T:The Good Ship Kangaroo
M:4/4
L:1/4
K:Bb
 F/2F/2| F F C D| E E E F| G G A A| B3| F/2F/2| d B B F| G F D D| F E C A,|\
 B,2 z||
